X:1
T:O bone Jesu
T:Henri Du Mont (1610 - 1684)
T:O bone Jesu
T:Motet à 3
C:Henri Du Mont
C:(1610 - 1684)
%%score [ 1 2 3 ] { ( 4 6 ) | 5 }
L:1/8
Q:1/4=90
M:4/4
K:C
V:1 treble nm="Bas-dessus [Alto]" snm="A"
V:2 treble-8 nm="Haute-taille [Tenor]" snm="T"
V:3 bass nm="Basse [Bass]" snm="B"
V:4 treble nm="Basse-continue [Organ]" snm="Org."
V:6 treble 
V:5 bass 
V:1
 z2 c4 E>F | G2 GA FE FD | E2 E2 z4 | z8 | z2 D2 EF G2 | AB c4 B2 | c2 G4 F>E | D2 D2 D3 E | %8
w: O bo- ne|Je- su! O dul- * cis _|Je- su!||O dul- * cis|Je- * * *|su fi- li Ma-|ri- æ Vir- gi-|
 F2 A4 G>F | E2 EE A4 | A2 A4 ^G>A | A4 z4 | z8 | z8 | z2 G2 DGFG | E3 D EAGA | ^F2 G4 F2 | G8 :: %18
w: nis! Fi- li Ma-|ri- æ Ma- ri-|æ Vir- * gi-|nis!|||ple- ne mi- se- ri-|cor- di- æ et ve- ri-|ta- * *|tis,|
 z2 G3 A/B/ c2 | A2 ^G2 A4 | ^G4 z4 | z2 A4 G2- | G2 F2 E4 | D2 ^F>F F2 F2 | G3 A ^F2 F2 | %25
w: O _ _ _|dul- cis Je-|su,|O dul-|* cis Je-|su, mi- se- re- re|mi- se- re- re|
 z2 A3 _B G2 | ^F2 G4 F2 | G4 z2 G2 | G2 G2 c2 c>_B | AA A3 _B/A/ G>F | E>E EF G4- | G4 F4- | %32
w: mi- se- re-|re me- *|i se-|cun- dum mag- nam mi-|se- ri- cor- * * * di-|am mi- se- ri- cor-||
 F2 F2 E4 | D6 F2 | !fermata!E8 |] %35
w: * di- am|tu- *|am.|
V:2
 z8 | z8 | z4 g4- | g2 B>c d2 A>A | B2 B2 c2 c2 | z2 A2 f4 | e2 e4 d>c | B2 B2 B3 ^c | d2 f4 e>d | %9
w: ||O|_ bo- ne Je- su! O|dul- cis Je- su!|O Je-|su fi- li Ma-|ri- æ Vir- gi-|nis! Fi- li Ma-|
 ^c2 c2 z2 e2 | fe dc B3 A | A2 e2 Bede | ^c3 c c4 | z2 d2 Adcd | B3 B B4 | z GAB c4 | AABc d4 | %17
w: ri- æ Ma-|ri- * æ _ Vir- gi-|nis! Ple- ne mi- se- ri-|cor- di- æ|ple- ne mi- se- ri-|cor- di- æ|et ve- ri- ta-|tis, et ve- ri- ta-|
 B8 :: z4 e4 | f2 e2 e2 d2 | e2 e>d ^c2 c2 | d>c c>B B2 B2 | e2 d2 d2 ^c2 | d4 z4 | z4 z2 d2- | %25
w: tis.|O|dul- cis Je- *|su, mi- se- re- re|mi- se- re- re me- i|dul- cis Je- *|su,|mi-|
 d2 c2 _B4 | A2 _B2 A4 | G2 d2 d2 d2 | e2 e3 fgg | c3 c c4 | z2 c2 c2 _B2 | A6 A2 | d4 z2 c2- | %33
w: * se- re-|re _ me-|i se- cun- dum|mag- nam mi- se- ri-|cor- di- am|mi- se- ri-|cor- di-|am tu-|
 c2 BA B4 | !fermata!c8 |] %35
w: |am.|
V:3
 z8 | z8 | z2 C4 E,>F, | G,2 G,A, ^F,3 F, | G,2 G,2 z2 E,2 | F,3 E, D,4 | C,4 z4 | z2 G,4 F,>E, | %8
w: ||O bo- ne|Je- su! O dul- cis|Je- su! O|dul- cis Je-|su!|Fi- li Ma-|
 D,3 E, F,3 G, | A,2 A,2 ^C,2 C,2 | D,2 D,2 E,3 A,, | A,,4 z4 | z2 A,2 E,A,G,A, | %13
w: ri- æ Vir- gi-|nis! Fi- li Ma-|ri- æ Vir- gi-|nis!|Ple- ne mi- se- ri-|
 ^F,3 F, F,D,E,F, | G,4 G,G,,A,,B,, | C,4 C,A,,B,,C, | D,8 | G,,8 :: C,8 | D,2 E,2 F,4 | %20
w: cor- di- æ et ve- ri-|ta- tis, et ve- ri-|ta- tis, et ve- ri-|ta-|tis.|O|dul- cis Je-|
 E,4 z2 A,>G, | ^F,2 F,2 G,F, E,D, | ^C,2 D,2 A,,4 | D,4 z4 | z8 | z8 | z8 | z2 G,2 G,2 G,2 | %28
w: su, mi- se-|re- re mi- * se- *|re- re me-|i||||se- cun- dum|
 C3 _B, A,A,E,E, | F,3 F, F,2 E,D, | C,4 E,4 | F,2 E,2 D,2 C,2 | B,,4 C,4 | G,,8 | !fermata!C,8 |] %35
w: mag- nam _ mi- se- ri-|cor- di- am tu- *|am. mi-|se- ri- cor- di-|am _|tu-|am.|
V:4
 [EG]8 | [CG]4 [DF]4 | [EG]8 | [B,G]4 [DA]4 | [GB]2 [Bd]2 [Gc]2 [Gc]2 | c6 B2 | %6
 [Ec]3 [Fc] [Gc]2 [Ac]2 | [GB]7 [A^c] | d8 | [A^c]4 [Ae]4 | [Fd]4 B4 | [Ac]4 [Be]4 | [Ae]8 | %13
 z [^FA][GB][A^c] [Fd]2 [F=c]2 | [GB]4 z [GB][Fc][Fd] | [Ec]4 z [Ac][Gd][Ge] | [^Fd]8 | [GBd]8 :: %18
 [Ec]8 | [Fd]2 [^GB]2 [Ac]4 | [^GB]4 [A^c]4 | [Ad]4 [GB]G[^FA][FB] | A8 | [^FA]4 [FA]4 | %24
 [CG]4 [D^F]4 | [DA]4 [D_B]4 | A2 G4 ^F2 | [B,DG]4 [GB]4 | c4 c4 | A4 A2 _B2 | [EGc]4 [Gc]4 | %31
 [Ac]2 [Gc]2 [Fd]2 [Ac]2 | [GB]4 [Gc]4 | c2 d6 | !fermata![Ec]8 |] %35
V:5
 C,8 | E,4 D,4 | C,8 | G,4 ^F,4 | G,2 G,,2 C,2 E,2 | F,4 D,4 | C,3 D, E,2 F,2 | G,6 F,E, | %8
w: ||||||||
 D,3 E, F,3 G, | A,4 ^C,4 | D,4 E,2 E,,2 | A,,4 ^G,,4 | A,,8 | D,,8 | G,,4 z G,,A,,B,, | %15
w: |# *|||#|#||
 C,4- C,A,,B,,C, | D,8 | G,,8 :: C,8 | D,2 E,2 F,4 | E,4 A,3 G, | ^F,4 G,F,E,D, | ^C,2 D,2 A,,4 | %23
w: ||||||||
 D,,4 D,4 | _E,4 D,4 | ^F,4 G,4 | D,4 D,,4 | G,,4 G,4 | C3 _B, A,2 E,2 | F,6 E,D, | C,4 E,4 | %31
w: * #|* #||* #|# *||||
 F,2 E,2 D,2 C,2 | B,,4 C,4 | G,,8 | !fermata!C,8 |] %35
w: ||||
V:6
 x8 | x8 | x8 | x8 | x8 | A2 G2 F4 | x8 | x8 | F3 G A3 B | x8 | x4 A2 ^G2 | x8 | x8 | x8 | x8 | %15
 x8 | A2 B4 A2 | x8 :: x8 | x8 | x8 | x8 | E2 D2 E4 | x8 | x8 | x8 | D8 | x8 | G4 F2 G2 | %29
 F4 F2 G2 | x8 | x8 | x8 | G8 | x8 |] %35

